assets/img/icons/ui/error.svg

<?xml version="1.0" encoding="utf-8"?>
<!-- Generated by IcoMoon.io -->
<!DOCTYPE svg PUBLIC "-//W3C//DTD SVG 1.1//EN" "http://www.w3.org/Graphics/SVG/1.1/DTD/svg11.dtd">
<svg version="1.1" xmlns="http://www.w3.org/2000/svg" xmlns:xlink="http://www.w3.org/1999/xlink" width="32" height="32" viewBox="0 0 32 32">
<path fill="rgb(0, 0, 0)" d="M21.605 8l2.406 2.402-5.602 5.599 5.602 5.601-2.406 2.398-5.598-5.599-5.602 5.599-2.394-2.398 5.598-5.601-5.598-5.599 2.394-2.402 5.602 5.601 5.598-5.601zM32 10.6v10.801l-8.594 10.6h-14.801l-8.605-10.6v-10.801l8.605-10.6h14.801l8.594 10.6zM29.6 21.185v-10.369l-6.822-8.415h-13.543l-6.834 8.417v10.365l6.834 8.417h13.543l6.822-8.415z"></path>
</svg>

<svg xmlns="http://www.w3.org/2000/svg" width="32" height="32" viewBox="0 0 32 32"><path d="M21.605 8l2.406 2.402-5.602 5.599 5.602 5.601L21.605 24l-5.598-5.599L10.405 24l-2.394-2.398 5.598-5.601-5.598-5.599L10.405 8l5.602 5.601L21.605 8zM32 10.6v10.801l-8.594 10.6H8.605L0 21.401V10.6L8.605 0h14.801L32 10.6zm-2.4 10.585V10.816l-6.822-8.415H9.235l-6.834 8.417v10.365L9.235 29.6h13.543l6.822-8.415z"/></svg>
